src/assets/img/moneybox.svg

<svg width="50" height="45" viewBox="0 0 50 45" fill="none" xmlns="http://www.w3.org/2000/svg">
<path d="M13.1011 18.6389C13.1011 20.1594 14.342 21.3968 15.8679 21.3968C17.3938 21.3968 18.6347 20.1594 18.6347 18.6389C18.6347 17.1185 17.3933 15.8811 15.8679 15.8811C14.3425 15.8811 13.1011 17.1185 13.1011 18.6389ZM17.0356 18.6389C17.0356 19.2807 16.5117 19.8028 15.8679 19.8028C15.2241 19.8028 14.7002 19.2807 14.7002 18.6389C14.7002 17.9972 15.2241 17.475 15.8679 17.475C16.5117 17.475 17.0356 17.9972 17.0356 18.6389Z" fill="#12C296"/>
<path d="M40.3931 10.084C40.0052 9.87449 39.5198 10.0155 39.308 10.4016C39.0961 10.7877 39.2392 11.2721 39.6266 11.4832C45.1206 14.472 48.4003 19.2949 48.4003 24.3844C48.4003 29.074 46.52 32.5367 42.3037 35.6121C42.1474 35.7267 42.0379 35.894 41.995 36.0822L40.419 43.1589H37.4689L36.5296 39.5525C36.4723 39.3347 36.326 39.1504 36.1257 39.0462C35.9254 38.942 35.6887 38.9278 35.4774 39.0056C32.8603 39.9748 30.877 40.2858 27.3139 40.2858C23.9313 40.2858 21.5134 40.0489 18.4307 38.8005C18.2144 38.7122 17.9707 38.7232 17.7638 38.8301C17.5563 38.9365 17.4061 39.1285 17.3521 39.3545L16.4453 43.1594H13.5211L11.9681 35.5249C11.9263 35.3198 11.8053 35.1393 11.6314 35.0225C4.97403 30.5522 1.59913 26.6952 1.59913 23.5578V20.5482C1.59913 19.2565 2.51645 18.2056 3.64344 18.2056H7.19443L7.26376 18.205C7.29513 18.2045 7.32374 18.2028 7.35456 18.2056C7.65997 18.2336 7.95822 18.086 8.1167 17.8216C9.2668 15.9074 10.9336 14.1824 13.0704 12.6949C13.2844 12.5457 13.4121 12.3016 13.4121 12.0416V5.41522C16.2642 5.71195 18.2739 7.56587 19.0459 9.40498C19.216 9.81086 19.6848 10.0023 20.092 9.8328C20.4992 9.66277 20.6918 9.196 20.5212 8.79011C19.4751 6.29665 16.6241 3.78015 12.6125 3.78015C12.1707 3.78015 11.813 4.13667 11.813 4.57712V11.6308C9.79452 13.0914 8.17393 14.7638 6.98752 16.6117H3.64344C1.63435 16.6117 0 18.3778 0 20.5482V23.5578C0 28.9556 7.57137 34.2123 10.4653 36.1611L12.0832 44.1143C12.1585 44.4857 12.486 44.7528 12.8668 44.7528H17.077C17.4473 44.7528 17.7693 44.4994 17.8551 44.1401L18.6965 40.6095C21.619 41.6675 24.0464 41.8792 27.3139 41.8792C30.3273 41.8792 32.4674 41.7026 35.2006 40.7932L36.0767 44.156C36.168 44.5076 36.4861 44.7528 36.8504 44.7528H41.0606C41.4354 44.7528 41.76 44.4928 41.8415 44.1286L43.4923 36.7184C47.9298 33.3962 50 29.4695 50 24.3844C50 18.702 46.4083 13.3563 40.3931 10.084Z" fill="#12C296"/>
<path d="M24.5688 12.3455C24.8109 12.3586 25.0366 12.2616 25.1961 12.086C26.2813 10.8996 28.0213 10.1915 29.8499 10.1915C31.6636 10.1915 33.3475 10.8975 34.4701 12.1283C34.6214 12.295 34.8371 12.3894 35.0616 12.3894C35.0726 12.3894 35.0831 12.3894 35.0941 12.3888C35.3307 12.3795 35.5508 12.266 35.6956 12.0789C36.696 10.7845 37.2243 9.23442 37.2237 7.59716C37.2237 3.54432 33.9154 0.247314 29.8499 0.247314C25.7844 0.247314 22.4761 3.54432 22.4761 7.59716C22.4761 9.21248 22.9922 10.7461 23.9684 12.0306C24.1115 12.2188 24.3316 12.3345 24.5688 12.3455ZM29.8499 1.84069C33.0338 1.84069 35.6246 4.42301 35.6246 7.59716C35.6251 8.57787 35.3836 9.51799 34.9197 10.3588C33.5489 9.23003 31.7522 8.59761 29.8504 8.59761C27.9217 8.59761 26.1173 9.21412 24.7576 10.3144C24.3096 9.48398 24.0758 8.55922 24.0758 7.59661C24.0752 4.42301 26.6654 1.84069 29.8499 1.84069Z" fill="#12C296"/>
</svg>

<svg xmlns="http://www.w3.org/2000/svg" width="50" height="45" fill="none"><path fill="#12C296" d="M13.101 18.639c0 1.52 1.241 2.758 2.767 2.758a2.765 2.765 0 0 0 2.767-2.758 2.766 2.766 0 0 0-2.767-2.758A2.766 2.766 0 0 0 13.1 18.64Zm3.935 0a1.167 1.167 0 0 1-2.336 0 1.167 1.167 0 0 1 2.336 0Z"/><path fill="#12C296" d="M40.393 10.084a.803.803 0 0 0-1.085.318.796.796 0 0 0 .319 1.081c5.494 2.989 8.773 7.812 8.773 12.901 0 4.69-1.88 8.153-6.096 11.228a.805.805 0 0 0-.309.47l-1.576 7.077h-2.95l-.94-3.606a.8.8 0 0 0-1.052-.547c-2.617.969-4.6 1.28-8.163 1.28-3.383 0-5.8-.237-8.883-1.486a.797.797 0 0 0-1.079.555l-.907 3.804h-2.924l-1.553-7.634a.797.797 0 0 0-.337-.502C4.974 30.553 1.6 26.695 1.6 23.558v-3.01c0-1.291.917-2.342 2.044-2.342h3.551l.07-.001c.031 0 .06-.002.09 0a.803.803 0 0 0 .763-.383c1.15-1.915 2.817-3.64 4.953-5.127a.797.797 0 0 0 .342-.653V5.415c2.852.297 4.862 2.15 5.634 3.99a.8.8 0 0 0 1.046.428c.407-.17.6-.637.43-1.043-1.047-2.493-3.898-5.01-7.91-5.01-.441 0-.799.357-.799.797v7.054c-2.018 1.46-3.64 3.133-4.825 4.98H3.643C1.634 16.612 0 18.379 0 20.549v3.01c0 5.398 7.571 10.654 10.465 12.603l1.618 7.953a.798.798 0 0 0 .784.639h4.21a.8.8 0 0 0 .778-.613l.841-3.53c2.923 1.057 5.35 1.27 8.618 1.27 3.013 0 5.153-.177 7.887-1.087l.876 3.363c.091.352.41.597.773.597h4.21a.8.8 0 0 0 .782-.624l1.65-7.41C47.93 33.395 50 29.468 50 24.383c0-5.682-3.592-11.028-9.607-14.3Z"/><path fill="#12C296" d="M24.569 12.345a.785.785 0 0 0 .627-.259c1.085-1.186 2.825-1.895 4.654-1.895 1.814 0 3.497.707 4.62 1.937a.8.8 0 0 0 .592.261h.032a.8.8 0 0 0 .602-.31 7.262 7.262 0 0 0 1.528-4.482c0-4.053-3.309-7.35-7.374-7.35-4.066 0-7.374 3.297-7.374 7.35a7.27 7.27 0 0 0 1.492 4.434.801.801 0 0 0 .6.314Zm5.28-10.504c3.185 0 5.776 2.582 5.776 5.756 0 .98-.241 1.921-.705 2.762-1.371-1.129-3.168-1.761-5.07-1.761-1.928 0-3.733.616-5.092 1.716a5.695 5.695 0 0 1-.682-2.717c0-3.174 2.59-5.756 5.774-5.756Z"/></svg>
